packages/sources/icons/src/vitamix/file-fill.svg

<svg width="16" height="16" viewBox="0 0 16 16" xmlns="http://www.w3.org/2000/svg"><path fill-rule="evenodd" clip-rule="evenodd" d="M14 13.9953V6H10C9.63181 6 9.33333 5.70152 9.33333 5.33333V1.33333H2.66533C2.298 1.33333 2 1.63666 2 1.99466V14.0053C2.00037 14.3707 2.29665 14.6667 2.662 14.6667H13.338C13.5148 14.6654 13.6839 14.594 13.808 14.4681C13.9322 14.3422 14.0012 14.1721 14 13.9953ZM10.6667 4.66666H14L10.6667 1.33533V4.66666Z"/></svg>

<svg width="16" height="16" xmlns="http://www.w3.org/2000/svg"><path fill-rule="evenodd" clip-rule="evenodd" d="M14 13.995V6h-4a.667.667 0 0 1-.667-.667v-4H2.665A.668.668 0 0 0 2 1.995v12.01c0 .366.297.662.662.662h10.676a.667.667 0 0 0 .662-.672Zm-3.333-9.328H14l-3.333-3.332v3.332Z"/></svg>
